X: 1
P: Pamela Rose Grant
R: strathspey
C: Alasair Fraser
C: 90s Colln., arr. T. Traub 2-25-2004
M: 4/4
L: 1/8
K: F
A>B|"F"c2 A>B c>B A<F|"Bb"d2 B>c d<f"C"e<g|"F"c2 A>B c>B A<F|"Gm"D<GG>A "C7"B2 A>B|"F"c2 A>B c>B A<F|
"Bb"d2 B>c d<f"C"e<g|"F"c<a"C"g>e "Dm"f>d c<A|"Gm"D<GG>A "C7"B2||A>G|"F"F2 f>g a>gf>c|"Bb"d<f"F"c>A "Gm"A<G"C"G>A|
"F"F2 f>g "Dm"a>g (3fga|"Gm"b>ag>f "Bb"d>c "C7"d<f|"F"F2 f>g a>gf>e|"Bb"d>c d<f "C"g2 f>g|"F"a>g f<d "Am"c>df>A|"Gm"D<GG>A "C7"B2 |]
